static/assets/template/assets/img/icons/essential/detailed/Profile.svg

<svg height="147" viewBox="0 0 116 147" width="116" xmlns="http://www.w3.org/2000/svg"><g fill="none" fill-rule="evenodd" transform="translate(2 2)"><path d="m110.7 35.3 1.2 101.8c0 3.4-2.8 6.2-6.2 6.2h-99.1c-3.4 0-6.2-2.8-6.2-6.2v-130.9c0-3.4 2.8-6.2 6.2-6.2h71.8z" fill-rule="nonzero"/><path d="m110.8 35.9 1.1 101.5c0 3.3-2.6 5.9-5.9 5.9h-94c-3.3 0-5.9-2.6-5.9-5.9v-126.3c0-3.3 2.6-5.9 5.9-5.9h71.6z" fill-rule="nonzero"/><path d="m78.5.1v28.1c0 3.9 3.4 7.2 7.3 7.2h25" fill-rule="nonzero"/><path d="m82 2.9v25.5c0 3.5 3.1 6.5 6.6 6.5h22.7" fill-rule="nonzero"/><path d="m82 8v25.5c0 3.5 3.1 6.5 6.6 6.5h22.7v-5.2" fill-rule="nonzero"/><g stroke-linecap="round" stroke-linejoin="round" stroke-width="3"><path d="m78.5 22v6.1c0 3.9 3.4 7.2 7.3 7.2h25"/><path d="m78.5.1v15.1"/><path d="m.4 33.5v-1.5"/><path d="m.4 24.8v-18.6c0-3.4 2.8-6.2 6.2-6.2h71.8l32.3 35.3 1.2 101.8c0 3.4-2.8 6.2-6.2 6.2h-99.1c-3.4 0-6.2-2.8-6.2-6.2v-88.2"/><g transform="translate(34 20)"><path d="m19 .6h1.1c10.8 0 19.6 8.8 19.6 19.6s-8.8 19.6-19.6 19.6-19.6-8.8-19.6-19.6c0-5.6 2.3-10.6 6-14.1"/><path d="m10.9 2.9c.1 0 .2-.1.3-.1"/><path d="m20.3 9.2h.4c3.1 0 5.6 2.5 5.6 5.6s-2.5 5.6-5.6 5.6-5.6-2.5-5.6-5.6c0-.7.1-1.4.4-2.1"/><path d="m12.9 22.6c-1.7 1.7-2.8 3.8-2.8 6.1 0 .9.9.9.9.9h6.9 4.2 6.9s.9 0 .9-.9c0-3.8-3.1-7-6.7-9"/></g><g transform="translate(20 77)"><path d="m66.8.6h6.1"/><path d="m40.5.6h19.3"/><path d="m.1.6h31.1"/><path d="m68.6 11.7h4.3"/><path d="m46.4 11.7h13.4"/><path d="m31.2 11.7h7.4"/><path d="m.1 11.7h22.7"/><path d="m54.2 22.8h18.7"/><path d="m18.4 22.8h27"/><path d="m.1 22.8h8.9"/><path d="m42.7 33.9h30.2"/><path d="m27 33.9h4.9"/><path d="m.1 33.9h16.2"/><path d="m.1 45h37.2"/></g></g></g></svg>

<?xml version="1.0" encoding="UTF-8"?>
<svg width="116px" height="147px" viewBox="0 0 116 147" version="1.1" xmlns="http://www.w3.org/2000/svg" xmlns:xlink="http://www.w3.org/1999/xlink">
    <!-- Generator: Sketch 51.2 (57519) - http://www.bohemiancoding.com/sketch -->
    <title>Profile</title>
    <desc>Created with Sketch.</desc>
    <defs></defs>
    <g id="Page-1" stroke="none" stroke-width="1" fill="none" fill-rule="evenodd">
        <g id="Profile" transform="translate(2.000000, 2.000000)">
            <path d="M110.7,35.3 L111.9,137.1 C111.9,140.5 109.1,143.3 105.7,143.3 L6.6,143.3 C3.2,143.3 0.4,140.5 0.4,137.1 L0.4,6.2 C0.4,2.8 3.2,9.09494702e-13 6.6,9.09494702e-13 L78.4,9.09494702e-13 L110.7,35.3 Z" id="Shape" class="fill-neutral" fill-rule="nonzero"></path>
            <path d="M110.8,35.9 L111.9,137.4 C111.9,140.7 109.3,143.3 106,143.3 L12,143.3 C8.7,143.3 6.1,140.7 6.1,137.4 L6.1,11.1 C6.1,7.8 8.7,5.2 12,5.2 L83.6,5.2 L110.8,35.9 Z" id="Shape" class="fill-primary-100" fill-rule="nonzero"></path>
            <path d="M78.5,0.1 L78.5,28.2 C78.5,32.1 81.9,35.4 85.8,35.4 L110.8,35.4" id="Shape" class="fill-neutral" fill-rule="nonzero"></path>
            <path d="M82,2.9 L82,28.4 C82,31.9 85.1,34.9 88.6,34.9 L111.3,34.9" id="Shape" class="fill-primary-300" fill-rule="nonzero"></path>
            <path d="M82,8 L82,33.5 C82,37 85.1,40 88.6,40 L111.3,40 L111.3,34.8" id="Shape" class="fill-primary-300" fill-rule="nonzero"></path>
            <path d="M78.5,22 L78.5,28.1 C78.5,32 81.9,35.3 85.8,35.3 L110.8,35.3" id="Shape" class="stroke-primary" stroke-width="3" stroke-linecap="round" stroke-linejoin="round"></path>
            <path d="M78.5,0.1 L78.5,15.2" id="Shape" class="stroke-primary" stroke-width="3" stroke-linecap="round" stroke-linejoin="round"></path>
            <path d="M0.4,33.5 L0.4,32" id="Shape" class="stroke-primary" stroke-width="3" stroke-linecap="round" stroke-linejoin="round"></path>
            <path d="M0.4,24.8 L0.4,6.2 C0.4,2.8 3.2,0 6.6,0 L78.4,0 L110.7,35.3 L111.9,137.1 C111.9,140.5 109.1,143.3 105.7,143.3 L6.6,143.3 C3.2,143.3 0.4,140.5 0.4,137.1 L0.4,48.9" id="Shape" class="stroke-primary" stroke-width="3" stroke-linecap="round" stroke-linejoin="round"></path>
            <g id="Group" transform="translate(34.000000, 20.000000)" class="stroke-primary" stroke-linecap="round" stroke-linejoin="round" stroke-width="3">
                <path d="M19,0.6 C19.4,0.6 19.7,0.6 20.1,0.6 C30.9,0.6 39.7,9.4 39.7,20.2 C39.7,31 30.9,39.8 20.1,39.8 C9.3,39.8 0.5,31 0.5,20.2 C0.5,14.6 2.8,9.6 6.5,6.1" id="Shape"></path>
                <path d="M10.9,2.9 C11,2.9 11.1,2.8 11.2,2.8" id="Shape"></path>
                <path d="M20.3,9.2 C20.4,9.2 20.6,9.2 20.7,9.2 C23.8,9.2 26.3,11.7 26.3,14.8 C26.3,17.9 23.8,20.4 20.7,20.4 C17.6,20.4 15.1,17.9 15.1,14.8 C15.1,14.1 15.2,13.4 15.5,12.7" id="Shape"></path>
                <path d="M12.9,22.6 C11.2,24.3 10.1,26.4 10.1,28.7 C10.1,29.6 11,29.6 11,29.6 L17.9,29.6 L22.1,29.6 L29,29.6 C29,29.6 29.9,29.6 29.9,28.7 C29.9,24.9 26.8,21.7 23.2,19.7" id="Shape"></path>
            </g>
            <g id="Group" transform="translate(20.000000, 77.000000)" stroke-linecap="round" stroke-linejoin="round" stroke-width="3">
                <path d="M66.8,0.6 L72.9,0.6" id="Shape" class="stroke-primary-300"></path>
                <path d="M40.5,0.6 L59.8,0.6" id="Shape" class="stroke-primary"></path>
                <path d="M0.1,0.6 L31.2,0.6" id="Shape" class="stroke-primary-300"></path>
                <path d="M68.6,11.7 L72.9,11.7" id="Shape" class="stroke-primary-300"></path>
                <path d="M46.4,11.7 L59.8,11.7" id="Shape" class="stroke-primary"></path>
                <path d="M31.2,11.7 L38.6,11.7" id="Shape" class="stroke-primary-300"></path>
                <path d="M0.1,11.7 L22.8,11.7" id="Shape" class="stroke-primary"></path>
                <path d="M54.2,22.8 L72.9,22.8" id="Shape" class="stroke-primary-300"></path>
                <path d="M18.4,22.8 L45.4,22.8" id="Shape" class="stroke-primary"></path>
                <path d="M0.1,22.8 L9,22.8" id="Shape" class="stroke-primary-300"></path>
                <path d="M42.7,33.9 L72.9,33.9" id="Shape" class="stroke-primary"></path>
                <path d="M27,33.9 L31.9,33.9" id="Shape" class="stroke-primary-300"></path>
                <path d="M0.1,33.9 L16.3,33.9" id="Shape" class="stroke-primary"></path>
                <path d="M0.1,45 L37.3,45" id="Shape" class="stroke-primary"></path>
            </g>
        </g>
    </g>
</svg>
